src/basic/700/u2193-down.svg

<svg width="13" height="20" viewBox="0 0 13 20" fill="none" xmlns="http://www.w3.org/2000/svg">
<path fill-rule="evenodd" clip-rule="evenodd" d="M5.99627,17.5644v-17.5644h1v17.6127l4.89653,-4.8949l0.707,0.7072l-5.71621,5.7143l-0.34962,0.3495l-0.35345,-0.3456l-5.84382,-5.7143l0.69914,-0.715z" fill="black"/>
</svg>

<svg width="13" height="20" viewBox="0 0 13 20" fill="none" xmlns="http://www.w3.org/2000/svg">
<path fill-rule="evenodd" clip-rule="evenodd" d="M5.99627 17.5644L5.99627 7.87459e-08L6.99627 6.6821e-08L6.99627 17.6127L11.8928 12.7178L12.5998 13.425L6.88359 19.1393L6.53397 19.4888L6.18052 19.1432L0.336697 13.4289L1.03584 12.7139L5.99627 17.5644Z" fill="black"/>
</svg>
